X:1
T:Claudius, CM
T:Claudius, CM
T:Arthur Henry Mann, 1905
T:Public Domain Courtesy of the Cyber Hymnal™
C:Arthur Henry Mann, 1905
Z:Public Domain
Z:Courtesy of the Cyber Hymnal™
%%score ( 1 2 ) ( 3 4 )
L:1/8
Q:1/4=110
M:4/4
K:G
V:1 treble 
V:2 treble 
V:3 bass 
V:4 bass 
V:1
 [EG]2 | [^DG]3 [DF] E2 [GB]2 | [FB]3 [FA] [EG]2 E2 | F2 G2 F2 [^A,E]2 | [B,^D]6 [B,D]2 | %5
 E2 [^DF]2 [EG]2 [E^G]2 | [EA]2 [^GB]2 [Ac]2 ([=GB][FA]) | [EG]3 [EG] [EG]2 [^DF]2 | E6 |] %9
V:2
 x2 | x4 E2 x2 | x6 E2 | F2 G2 F2 x2 | x8 | E2 x6 | x8 | x8 | E6 |] %9
V:3
 [E,B,]2 | [A,B,]3 [A,B,] [G,B,]2 [E,B,]2 | [^D,B,]3 [D,B,] [E,B,]2 E,2 | F,2 G,2 F,2 [C,F,]2 | %4
 [B,,F,]6 [B,,B,]2 | [G,B,]2 [F,B,]2 [E,B,]2 [D,B,]2 | [C,A,]2 [B,,D]2 [A,,C]2 [A,,C]2 | %7
 [B,,B,]3 [C,^A,] [B,,B,]2 [B,,=A,]2 | [E,G,]6 |] %9
V:4
 x2 | x8 | x6 E,2 | F,2 G,2 F,2 x2 | x8 | x8 | x8 | x8 | x6 |] %9

